X:246
T: Spinning Wheel
N: O'Farrell's Pocket Companion v.3 (Sky ed. p.117)
M: C
L: 1/8
Q: 280
R: hornpipe % ? strathspey
K: D
A| F3G A<FBG| A<F d>e d3f| G2 G>B A>FED| EDEF E3F |
GFGA Bcde| {de} f2 ed B3d| A3B AFED | B2 cB/c/ d3 :|
F| B3c dBfe| d2 cB/c/ B3| eBcB fABA| G2 FE/F/ E2 z2|
cdef ecBA| ^GABc B3c| dBcA B^GEG| A2 AB A3A|
F3G A<FBG| A<F d>e d3f| G2 G>B A>FED| EDEF E3F |
GFGA Bcde| {de} f2 ed B3d| A3B AFED | B2 cB/c/ d3 :|
